brandFactory_export/1.Light/Documento error_1Light.svg

<?xml version="1.0" encoding="UTF-8"?>
<svg width="24px" height="24px" viewBox="0 0 24 24" version="1.1" xmlns="http://www.w3.org/2000/svg" xmlns:xlink="http://www.w3.org/1999/xlink">
    <title>1.Light/Documento error_1Light</title>
    <g id="Symbols" stroke="none" stroke-width="1" fill="none" fill-rule="evenodd">
        <g id="1.Light/Documento-error_1Light" fill="#5CB615" fill-rule="nonzero">
            <path d="M16.2857143,22.6352941 C16.5344538,22.6352941 16.7697479,22.4134454 16.7697479,22.1781513 L16.7697479,7.91260504 L13.7109244,7.91260504 C12.5445378,7.91260504 11.5394958,7.53277311 10.8067227,6.81680672 C10.0672269,6.09411765 9.67731092,5.10588235 9.67731092,3.95630252 L9.67731092,0.98487395 L1.48907563,0.98487395 C1.26722689,0.98487395 1.00504202,1.23361345 1.00504202,1.44201681 L1.00504202,22.1781513 C1.00504202,22.4033613 1.25042017,22.6352941 1.48907563,22.6352941 L16.2857143,22.6352941 Z M16.5142857,6.92773109 L10.6554622,1.20336134 L10.6554622,3.95966387 C10.6554622,4.83361345 10.9445378,5.57983193 11.4890756,6.11092437 C12.0369748,6.64537815 12.8067227,6.93109244 13.7142857,6.93109244 L16.5142857,6.93109244 L16.5142857,6.92773109 Z M17.502521,6.51764706 C17.6571429,6.66890756 17.7478992,6.88067227 17.7478992,7.09915966 L17.7478992,22.1781513 C17.7478992,22.9613445 17.0789916,23.6235294 16.2857143,23.6235294 L1.48907563,23.6235294 C0.709243697,23.6235294 0.0268907563,22.9478992 0.0268907563,22.1781513 L0.0268907563,1.44537815 C0.0268907563,0.68907563 0.722689076,0 1.48907563,0 L10.4941176,0 C10.7058824,0 10.9142857,0.0840336134 11.0655462,0.231932773 L17.502521,6.51764706 L17.502521,6.51764706 Z M4.49747899,13.4453782 C4.40336134,13.5428571 4.27563025,13.589916 4.1512605,13.589916 C4.02689076,13.589916 3.90252101,13.5428571 3.80504202,13.4453782 C3.61344538,13.2537815 3.61344538,12.9411765 3.80504202,12.7462185 L4.93781513,11.6 L3.80504202,10.4537815 C3.61344538,10.2588235 3.61344538,9.94957983 3.80504202,9.75462185 C3.99663866,9.55966387 4.30588235,9.55966387 4.49747899,9.75462185 L5.6302521,10.9008403 L6.76302521,9.75462185 C6.95462185,9.55966387 7.26386555,9.55966387 7.45546218,9.75462185 C7.64705882,9.94621849 7.64705882,10.2588235 7.45546218,10.4537815 L6.32268908,11.6 L7.45546218,12.7462185 C7.64705882,12.9378151 7.64705882,13.2504202 7.45546218,13.4453782 C7.36134454,13.5428571 7.23697479,13.589916 7.1092437,13.589916 C6.98487395,13.589916 6.8605042,13.5428571 6.76302521,13.4453782 L5.6302521,12.2991597 L4.49747899,13.4453782 Z M14.1310924,9.75798319 C14.3226891,9.94957983 14.3226891,10.2621849 14.1310924,10.4571429 L12.9983193,11.6033613 L14.1310924,12.7495798 C14.3226891,12.9445378 14.3226891,13.2537815 14.1310924,13.4487395 C14.0369748,13.5462185 13.9092437,13.5932773 13.7848739,13.5932773 C13.6605042,13.5932773 13.5361345,13.5462185 13.4386555,13.4487395 L12.3058824,12.302521 L11.1731092,13.4487395 C11.0789916,13.5462185 10.9512605,13.5932773 10.8268908,13.5932773 C10.702521,13.5932773 10.5781513,13.5462185 10.4806723,13.4487395 C10.2890756,13.2571429 10.2890756,12.9445378 10.4806723,12.7495798 L11.6134454,11.6033613 L10.4806723,10.4571429 C10.2890756,10.2655462 10.2890756,9.95294118 10.4806723,9.75798319 C10.6722689,9.56638655 10.9815126,9.56638655 11.1731092,9.75798319 L12.3058824,10.9042017 L13.4386555,9.75798319 C13.6336134,9.56302521 13.9428571,9.56302521 14.1310924,9.75798319 L14.1310924,9.75798319 Z M11.7848739,15.7882353 C12.6554622,15.8084034 13.6739496,16.3428571 13.6739496,17.7747899 C13.6739496,18.0470588 13.4554622,18.2689076 13.1865546,18.2689076 C12.9142857,18.2689076 12.6991597,18.0470588 12.6991597,17.7747899 C12.6991597,16.9680672 12.1915966,16.7865546 11.7647059,16.7764706 L11.6470588,16.7764706 C11.2268908,16.7798319 10.7327731,16.9546218 10.7327731,17.7647059 C10.7327731,19.2268908 9.7210084,19.7512605 8.85378151,19.7579832 L8.69915966,19.7579832 C7.82857143,19.7378151 6.81008403,19.2033613 6.81008403,17.7714286 C6.81008403,16.9647059 6.30252101,16.7831933 5.87563025,16.7731092 L5.75798319,16.7731092 C5.33445378,16.7764706 4.84369748,16.9512605 4.84369748,17.7613445 C4.84369748,18.0336134 4.62521008,18.2554622 4.35630252,18.2554622 C4.08403361,18.2554622 3.86890756,18.0336134 3.86890756,17.7613445 C3.86890756,16.3092437 4.88067227,15.7915966 5.74789916,15.7848739 L5.90252101,15.7848739 C6.77310924,15.805042 7.79159664,16.3394958 7.79159664,17.7714286 C7.79159664,18.5781513 8.29915966,18.7596639 8.72605042,18.7697479 L8.85378151,18.7697479 C9.45210084,18.7663866 9.75798319,18.4302521 9.75798319,17.7815126 C9.75798319,16.312605 10.7697479,15.7915966 11.6369748,15.7848739 L11.7848739,15.7882353 L11.7848739,15.7882353 Z" id="Documento-error_1Light"></path>
        </g>
    </g>
</svg>

<svg width="24" height="24" viewBox="0 0 24 24" xmlns="http://www.w3.org/2000/svg"><path d="M16.286 22.635c.248 0 .484-.222.484-.457V7.913h-3.06c-1.165 0-2.17-.38-2.903-1.096-.74-.723-1.13-1.711-1.13-2.86V.984H1.49c-.222 0-.484.249-.484.457v20.736c0 .225.245.457.484.457h14.797zm.228-15.707l-5.859-5.725V3.96c0 .874.29 1.62.834 2.15.548.535 1.318.821 2.225.821h2.8v-.003zm.989-.41a.82.82 0 01.245.581v15.08c0 .782-.669 1.445-1.462 1.445H1.489c-.78 0-1.462-.676-1.462-1.446V1.445C.027.69.723 0 1.489 0h9.005c.212 0 .42.084.572.232l6.437 6.286zM4.497 13.445a.486.486 0 01-.692 0 .497.497 0 010-.699L4.938 11.6l-1.133-1.146a.497.497 0 010-.7.483.483 0 01.692 0l1.133 1.147 1.133-1.146a.483.483 0 01.692 0 .497.497 0 010 .699L6.323 11.6l1.132 1.146a.497.497 0 010 .7.486.486 0 01-.692 0L5.63 12.298l-1.133 1.146zm9.634-3.687a.497.497 0 010 .7l-1.133 1.145 1.133 1.147a.497.497 0 010 .699.486.486 0 01-.692 0l-1.133-1.146-1.133 1.146a.486.486 0 01-.692 0 .497.497 0 010-.7l1.132-1.146-1.132-1.146a.497.497 0 010-.699.489.489 0 01.692 0l1.133 1.146 1.133-1.146a.483.483 0 01.692 0zm-2.346 6.03c.87.02 1.889.555 1.889 1.987a.491.491 0 01-.487.494.49.49 0 01-.488-.494c0-.807-.507-.988-.934-.999h-.118c-.42.004-.914.179-.914.989 0 1.462-1.012 1.986-1.88 1.993H8.7c-.87-.02-1.889-.555-1.889-1.987 0-.806-.507-.988-.934-.998h-.118c-.424.003-.914.178-.914.988a.491.491 0 01-.488.494.49.49 0 01-.487-.494c0-1.452 1.012-1.97 1.879-1.976h.155c.87.02 1.889.554 1.889 1.986 0 .807.507.989.934.999h.128c.598-.004.904-.34.904-.988 0-1.47 1.012-1.99 1.879-1.997l.148.003z" fill="#5CB615" fill-rule="nonzero"/></svg>
